public/logos/MS.svg

<?xml version="1.0" encoding="UTF-8"?>
<svg xmlns="http://www.w3.org/2000/svg" xmlns:xlink="http://www.w3.org/1999/xlink" width="176pt" height="25.75pt" viewBox="0 0 176 25.75" version="1.1">
<g id="surface1">
<path style=" stroke:none;fill-rule:evenodd;fill:rgb(5.715942%,15.304565%,32.124329%);fill-opacity:1;" d="M 110.003906 19.476562 L 103.546875 19.476562 C 102.761719 21.304688 102.121094 22.769531 101.78125 23.507812 C 101.171875 24.84375 100.222656 25.796875 98.386719 25.703125 L 95.851562 25.703125 L 98.503906 19.480469 C 100.34375 15.167969 102.363281 10.4375 103.058594 8.914062 C 103.671875 7.578125 104.515625 6.707031 106.40625 6.714844 L 120.507812 6.714844 L 113.304688 23.507812 C 112.691406 24.84375 111.746094 25.796875 109.957031 25.707031 L 107.429688 25.707031 Z M 105.617188 14.617188 L 111.128906 14.617188 C 111.664062 14.617188 112.265625 14.171875 112.5 13.636719 L 113.492188 11.339844 L 107.417969 11.339844 C 107.199219 11.339844 106.941406 11.527344 106.847656 11.75 Z M 82.476562 25.699219 L 85.085938 25.707031 C 86.867188 25.796875 87.804688 24.84375 88.414062 23.507812 C 89.09375 22.023438 91.011719 17.5 92.800781 13.28125 C 92.851562 13.164062 93.578125 11.449219 93.625 11.335938 L 99.390625 11.335938 L 101.355469 6.71875 L 87.246094 6.710938 C 85.449219 6.621094 84.511719 7.578125 83.902344 8.914062 L 82.875 11.347656 L 88.609375 11.335938 Z M 65.289062 19.453125 L 74.378906 19.476562 C 76.226562 19.472656 77.105469 18.613281 77.714844 17.273438 C 78.410156 15.75 80.421875 11.023438 82.253906 6.707031 L 68.097656 6.714844 C 66.304688 6.664062 65.371094 7.578125 64.761719 8.914062 L 57.582031 25.703125 L 60.191406 25.707031 C 61.996094 25.738281 62.914062 24.84375 63.527344 23.507812 C 63.863281 22.769531 64.507812 21.28125 65.289062 19.453125 Z M 67.351562 14.617188 L 72.894531 14.617188 C 73.425781 14.617188 74.023438 14.167969 74.257812 13.636719 L 75.261719 11.339844 L 69.144531 11.339844 C 68.925781 11.339844 68.667969 11.53125 68.574219 11.75 Z M 114.992188 25.699219 L 117.597656 25.707031 C 119.386719 25.796875 120.335938 24.84375 120.945312 23.507812 L 128.15625 6.710938 L 125.550781 6.714844 C 123.761719 6.621094 122.816406 7.578125 122.203125 8.914062 C 121.503906 10.4375 119.484375 15.167969 117.648438 19.480469 Z M 60.515625 6.714844 L 63.109375 6.707031 C 61.277344 11.023438 59.265625 15.75 58.570312 17.273438 C 57.960938 18.613281 57.019531 19.566406 55.234375 19.476562 L 51.914062 19.480469 C 51.128906 21.304688 50.484375 22.769531 50.148438 23.507812 C 49.539062 24.84375 48.597656 25.796875 46.816406 25.707031 L 44.207031 25.714844 L 46.890625 19.480469 L 41.101562 19.480469 C 42.933594 15.167969 44.945312 10.4375 45.640625 8.914062 C 46.25 7.578125 47.191406 6.621094 48.976562 6.714844 L 51.566406 6.703125 L 48.210938 14.617188 L 53.828125 14.617188 C 54.359375 14.617188 54.972656 14.175781 55.191406 13.636719 C 55.832031 12.050781 56.46875 10.472656 57.179688 8.914062 C 57.789062 7.578125 58.71875 6.671875 60.515625 6.714844 Z M 132.832031 19.453125 L 130.316406 19.453125 C 129.53125 21.28125 128.886719 22.769531 128.546875 23.507812 C 127.933594 24.84375 127.003906 25.726562 125.199219 25.699219 L 122.621094 25.699219 L 125.269531 19.480469 C 127.105469 15.167969 129.125 10.4375 129.820312 8.914062 C 130.433594 7.578125 131.378906 6.621094 133.167969 6.714844 L 147.304688 6.707031 C 145.46875 11.023438 143.449219 15.75 142.75 17.273438 C 142.136719 18.613281 141.191406 19.566406 139.402344 19.476562 L 143.808594 25.699219 L 137.046875 25.699219 Z M 132.5 14.617188 L 138.101562 14.617188 C 138.636719 14.617188 139.234375 14.167969 139.46875 13.636719 L 140.476562 11.339844 L 134.296875 11.339844 C 134.078125 11.339844 133.824219 11.527344 133.726562 11.75 Z M 27.625 0.0390625 L 13.445312 0.0546875 C 11.644531 0.0078125 10.707031 0.933594 10.082031 2.289062 C 9.84375 2.804688 9.457031 3.691406 8.972656 4.804688 L 0 25.703125 L 14.246094 25.707031 C 16.046875 25.714844 16.988281 24.832031 17.609375 23.476562 C 17.84375 22.957031 18.234375 22.070312 18.71875 20.957031 L 7.097656 20.929688 L 9.492188 15.367188 L 16.039062 15.367188 L 18.082031 10.621094 L 11.535156 10.621094 L 13.863281 5.222656 C 13.960938 4.996094 14.214844 4.808594 14.4375 4.808594 L 20.648438 4.808594 L 25.570312 4.800781 Z M 26.378906 21.023438 L 32.007812 21.023438 C 32.542969 21.023438 33.152344 20.601562 33.378906 20.042969 L 33.613281 19.492188 L 30.640625 19.492188 L 32.050781 16.210938 L 39.886719 16.210938 L 39.882812 16.222656 L 36.757812 23.507812 C 36.144531 24.84375 35.195312 25.796875 33.40625 25.707031 L 19.28125 25.6875 L 26.480469 8.914062 C 27.09375 7.558594 28.039062 6.671875 29.824219 6.710938 L 43.96875 6.707031 L 40.597656 14.558594 L 35.722656 14.558594 L 37.101562 11.339844 L 30.929688 11.339844 C 30.710938 11.339844 30.457031 11.527344 30.359375 11.75 Z M 163.890625 25.75 C 162.730469 25.597656 161.613281 25.304688 160.554688 24.890625 C 160.589844 19.460938 162.359375 13.003906 165.5625 9.050781 C 165.738281 9.742188 166.082031 10.460938 166.613281 11.171875 C 169.160156 8.191406 172.09375 6.085938 175.71875 5.15625 C 170.765625 7.027344 163.054688 13.015625 163.890625 25.75 Z M 158.449219 23.859375 C 157.386719 23.226562 156.414062 22.460938 155.546875 21.585938 C 156.480469 15.578125 160.144531 9.304688 166.027344 6.039062 C 165.605469 6.679688 165.398438 7.421875 165.4375 8.214844 C 162.003906 11.6875 158.605469 17.066406 158.449219 23.859375 Z M 154.066406 19.820312 C 153.316406 18.769531 152.707031 17.613281 152.257812 16.378906 C 154.945312 10.691406 160.128906 5.746094 167.089844 4.667969 C 163.625 5.976562 156.394531 11.273438 154.066406 19.820312 Z M 151.65625 14.167969 C 151.371094 12.660156 151.332031 11.109375 151.535156 9.589844 C 156.054688 4.996094 162.820312 1.988281 169.914062 3.464844 C 166.027344 3.472656 156.71875 6.136719 151.65625 14.167969 Z M 152.027344 7.335938 C 152.664062 5.246094 153.769531 3.359375 155.214844 1.789062 C 161.601562 -0.902344 169.839844 -0.882812 176 4.070312 C 172.125 2.101562 160.683594 0.00390625 152.027344 7.335938 Z M 170.488281 6.015625 C 169.988281 6.414062 169.175781 6.167969 168.597656 5.535156 C 169.375 5.066406 170.03125 4.832031 170.746094 4.84375 C 170.882812 5.300781 170.757812 5.804688 170.488281 6.015625 Z M 168.363281 5.683594 C 169.0625 6.5 170.089844 6.792969 170.734375 6.324219 C 171.144531 6.023438 171.304688 5.480469 171.222656 4.886719 C 171.59375 4.945312 171.984375 5.0625 172.425781 5.238281 C 172.65625 5.320312 172.910156 4.386719 172.570312 4.359375 C 168.863281 3.824219 166.804688 6.804688 166.855469 6.765625 C 167.421875 6.332031 167.914062 5.972656 168.363281 5.683594 "/>
</g>
</svg>

<svg xmlns="http://www.w3.org/2000/svg" width="176pt" height="34.333" viewBox="0 0 176 25.75"><path d="M110.004 19.477h-6.457a211 211 0 0 1-1.766 4.03c-.61 1.337-1.558 2.29-3.394 2.196h-2.535l2.652-6.223c1.84-4.312 3.86-9.042 4.555-10.566.613-1.336 1.457-2.207 3.347-2.2h14.102l-7.203 16.794c-.614 1.336-1.559 2.289-3.348 2.199h-2.527Zm-4.387-4.86h5.512c.535 0 1.137-.445 1.371-.98l.992-2.297h-6.074c-.219 0-.477.187-.57.41ZM82.477 25.7l2.609.008c1.781.09 2.719-.863 3.328-2.2.68-1.484 2.598-6.007 4.387-10.226l.824-1.945h5.766l1.964-4.617-14.109-.008c-1.797-.09-2.734.867-3.344 2.203l-1.027 2.434 5.734-.012Zm-17.188-6.246 9.09.024c1.848-.004 2.726-.864 3.336-2.204.695-1.523 2.707-6.25 4.539-10.566l-14.156.008c-1.793-.05-2.727.863-3.336 2.2l-7.18 16.788 2.61.004c1.804.031 2.722-.863 3.335-2.2.336-.737.98-2.226 1.762-4.054m2.063-4.836h5.543c.53 0 1.128-.449 1.363-.98l1.004-2.297h-6.117c-.22 0-.477.191-.57.41Zm47.64 11.082 2.606.008c1.789.09 2.738-.863 3.347-2.2l7.211-16.796-2.605.004c-1.79-.094-2.735.863-3.348 2.2-.7 1.523-2.719 6.253-4.555 10.565ZM60.516 6.715l2.593-.008c-1.832 4.316-3.843 9.043-4.539 10.566-.61 1.34-1.55 2.293-3.336 2.204l-3.32.003c-.785 1.825-1.43 3.29-1.766 4.028-.609 1.336-1.55 2.289-3.332 2.199l-2.609.008 2.684-6.235H41.1c1.833-4.312 3.844-9.042 4.54-10.566.609-1.336 1.55-2.293 3.336-2.2l2.59-.01-3.356 7.913h5.617c.531 0 1.145-.441 1.363-.98.641-1.586 1.278-3.164 1.989-4.723.61-1.336 1.539-2.242 3.336-2.2m72.316 12.738h-2.516a226 226 0 0 1-1.77 4.055c-.612 1.336-1.542 2.219-3.347 2.191h-2.578l2.649-6.219c1.835-4.312 3.855-9.042 4.55-10.566.614-1.336 1.559-2.293 3.348-2.2l14.137-.007c-1.836 4.316-3.856 9.043-4.555 10.566-.613 1.34-1.559 2.293-3.348 2.204l4.407 6.222h-6.762Zm-.332-4.836h5.602c.535 0 1.132-.449 1.367-.98l1.008-2.297h-6.18c-.219 0-.473.187-.57.41ZM27.625.04l-14.18.016c-1.8-.047-2.738.879-3.363 2.234-.238.516-.625 1.402-1.11 2.516L0 25.703l14.246.004c1.8.008 2.742-.875 3.363-2.23.235-.52.625-1.407 1.11-2.52L7.098 20.93l2.394-5.563h6.547l2.043-4.746h-6.547l2.328-5.398c.098-.227.352-.414.575-.414h6.21L25.57 4.8Zm-1.246 20.984h5.629c.535 0 1.144-.421 1.37-.98l.235-.55h-2.972l1.41-3.282h7.836l-.004.012-3.125 7.285c-.613 1.336-1.563 2.289-3.352 2.199l-14.125-.02 7.2-16.773c.613-1.355 1.558-2.242 3.343-2.203l14.145-.004-3.371 7.852h-4.875l1.379-3.22H30.93c-.22 0-.473.188-.57.411ZM163.89 25.75a14.2 14.2 0 0 1-3.336-.86c.035-5.43 1.804-11.886 5.007-15.84.176.692.52 1.41 1.051 2.122 2.547-2.98 5.48-5.086 9.106-6.016-4.953 1.871-12.664 7.86-11.828 20.594m-5.442-1.89a14.6 14.6 0 0 1-2.902-2.274c.933-6.008 4.598-12.281 10.48-15.547a3.6 3.6 0 0 0-.59 2.176c-3.433 3.473-6.832 8.851-6.988 15.644m-4.383-4.04a14.4 14.4 0 0 1-1.808-3.441c2.687-5.688 7.87-10.633 14.832-11.711-3.465 1.309-10.695 6.605-13.024 15.152m-2.41-5.652a14.4 14.4 0 0 1-.12-4.578c4.519-4.594 11.284-7.602 18.378-6.125-3.887.008-13.195 2.672-18.258 10.703m.371-6.832a14.4 14.4 0 0 1 3.188-5.547C161.602-.902 169.84-.883 176 4.07c-3.875-1.968-15.316-4.066-23.973 3.266m18.461-1.32c-.5.398-1.312.152-1.89-.48.777-.47 1.433-.704 2.148-.692.137.457.012.96-.258 1.172m-2.125-.332c.7.816 1.727 1.109 2.371.64.41-.3.57-.844.489-1.437.37.058.761.176 1.203.351.23.082.484-.851.144-.879-3.707-.535-5.765 2.446-5.715 2.407a23 23 0 0 1 1.508-1.082" style="stroke:none;fill-rule:evenodd;fill:#0f2752;fill-opacity:1"/></svg>
